images/logo.svg

<svg width="189" height="49" viewBox="0 0 189 49" fill="none" xmlns="http://www.w3.org/2000/svg">
<path d="M65.485 15.2095C67.6989 15.2095 69.6336 15.6483 71.289 16.5259C72.9445 17.4035 74.221 18.6401 75.1185 20.2357C76.036 21.8114 76.4947 23.6364 76.4947 25.7107C76.4947 27.765 76.036 29.59 75.1185 31.1856C74.221 32.7812 72.9345 34.0178 71.2591 34.8954C69.6037 35.773 67.679 36.2118 65.485 36.2118H57.6166V15.2095H65.485ZM65.1559 31.784C67.0906 31.784 68.5964 31.2554 69.6735 30.1983C70.7505 29.1412 71.289 27.6453 71.289 25.7107C71.289 23.776 70.7505 22.2701 69.6735 21.1931C68.5964 20.116 67.0906 19.5775 65.1559 19.5775H62.7326V31.784H65.1559ZM95.0905 27.5955C95.0905 28.0742 95.0605 28.5728 95.0007 29.0914H83.4225C83.5023 30.1285 83.8314 30.9263 84.4098 31.4848C85.0082 32.0233 85.7362 32.2926 86.5938 32.2926C87.8703 32.2926 88.7579 31.754 89.2565 30.677H94.7015C94.4223 31.774 93.9137 32.7613 93.1757 33.6389C92.4577 34.5165 91.5502 35.2046 90.4532 35.7032C89.3562 36.2018 88.1296 36.4511 86.7733 36.4511C85.1378 36.4511 83.6818 36.1021 82.4053 35.404C81.1288 34.7059 80.1316 33.7087 79.4136 32.4122C78.6955 31.1158 78.3365 29.6 78.3365 27.8647C78.3365 26.1295 78.6856 24.6137 79.3836 23.3172C80.1017 22.0208 81.0989 21.0236 82.3754 20.3255C83.6519 19.6274 85.1179 19.2783 86.7733 19.2783C88.3889 19.2783 89.8249 19.6174 91.0815 20.2956C92.338 20.9737 93.3153 21.941 94.0134 23.1976C94.7314 24.4541 95.0905 25.9201 95.0905 27.5955ZM89.8549 26.2492C89.8549 25.3716 89.5557 24.6735 88.9573 24.1549C88.359 23.6364 87.611 23.3771 86.7135 23.3771C85.8558 23.3771 85.1279 23.6264 84.5295 24.125C83.9511 24.6237 83.5921 25.3317 83.4525 26.2492H89.8549ZM107.961 19.3382C109.916 19.3382 111.472 19.9764 112.629 21.2529C113.805 22.5095 114.394 24.2447 114.394 26.4586V36.2118H109.308V27.1467C109.308 26.0298 109.018 25.1622 108.44 24.5439C107.862 23.9256 107.084 23.6164 106.106 23.6164C105.129 23.6164 104.351 23.9256 103.773 24.5439C103.195 25.1622 102.905 26.0298 102.905 27.1467V36.2118H97.7894V19.5177H102.905V21.7316C103.424 20.9936 104.122 20.4152 105 19.9964C105.877 19.5576 106.864 19.3382 107.961 19.3382ZM127.253 31.8737V36.2118H124.65C122.795 36.2118 121.349 35.763 120.312 34.8655C119.275 33.948 118.757 32.4621 118.757 30.4078V23.766H116.722V19.5177H118.757V15.4489H123.872V19.5177H127.223V23.766H123.872V30.4676C123.872 30.9662 123.992 31.3252 124.232 31.5446C124.471 31.764 124.87 31.8737 125.428 31.8737H127.253ZM129.086 27.8348C129.086 26.1195 129.405 24.6137 130.043 23.3172C130.701 22.0208 131.589 21.0236 132.706 20.3255C133.823 19.6274 135.069 19.2783 136.445 19.2783C137.622 19.2783 138.649 19.5177 139.527 19.9964C140.424 20.4751 141.113 21.1033 141.591 21.8812V19.5177H146.707V36.2118H141.591V33.8483C141.093 34.6262 140.395 35.2544 139.497 35.7331C138.619 36.2118 137.592 36.4511 136.416 36.4511C135.059 36.4511 133.823 36.1021 132.706 35.404C131.589 34.686 130.701 33.6788 130.043 32.3823C129.405 31.0659 129.086 29.5501 129.086 27.8348ZM141.591 27.8647C141.591 26.5883 141.232 25.581 140.514 24.8431C139.816 24.1051 138.959 23.7361 137.941 23.7361C136.924 23.7361 136.056 24.1051 135.338 24.8431C134.64 25.5611 134.291 26.5583 134.291 27.8348C134.291 29.1113 134.64 30.1285 135.338 30.8864C136.056 31.6244 136.924 31.9934 137.941 31.9934C138.959 31.9934 139.816 31.6244 140.514 30.8864C141.232 30.1485 141.591 29.1412 141.591 27.8647ZM152.981 17.7825C152.084 17.7825 151.346 17.5232 150.767 17.0046C150.209 16.4661 149.93 15.8079 149.93 15.03C149.93 14.2322 150.209 13.574 150.767 13.0555C151.346 12.5169 152.084 12.2477 152.981 12.2477C153.859 12.2477 154.577 12.5169 155.135 13.0555C155.714 13.574 156.003 14.2322 156.003 15.03C156.003 15.8079 155.714 16.4661 155.135 17.0046C154.577 17.5232 153.859 17.7825 152.981 17.7825ZM155.524 19.5177V36.2118H150.408V19.5177H155.524ZM164.348 22.3C164.946 21.3826 165.694 20.6645 166.592 20.146C167.489 19.6074 168.486 19.3382 169.583 19.3382V24.7533H168.177C166.901 24.7533 165.943 25.0325 165.305 25.591C164.667 26.1295 164.348 27.0869 164.348 28.4631V36.2118H159.232V19.5177H164.348V22.3ZM187.765 27.5955C187.765 28.0742 187.735 28.5728 187.676 29.0914H176.097C176.177 30.1285 176.506 30.9263 177.085 31.4848C177.683 32.0233 178.411 32.2926 179.269 32.2926C180.545 32.2926 181.433 31.754 181.931 30.677H187.376C187.097 31.774 186.589 32.7613 185.851 33.6389C185.133 34.5165 184.225 35.2046 183.128 35.7032C182.031 36.2018 180.804 36.4511 179.448 36.4511C177.813 36.4511 176.357 36.1021 175.08 35.404C173.804 34.7059 172.806 33.7087 172.088 32.4122C171.37 31.1158 171.011 29.6 171.011 27.8647C171.011 26.1295 171.36 24.6137 172.059 23.3172C172.777 22.0208 173.774 21.0236 175.05 20.3255C176.327 19.6274 177.793 19.2783 179.448 19.2783C181.064 19.2783 182.5 19.6174 183.756 20.2956C185.013 20.9737 185.99 21.941 186.688 23.1976C187.406 24.4541 187.765 25.9201 187.765 27.5955ZM182.53 26.2492C182.53 25.3716 182.231 24.6735 181.632 24.1549C181.034 23.6364 180.286 23.3771 179.388 23.3771C178.531 23.3771 177.803 23.6264 177.204 24.125C176.626 24.6237 176.267 25.3317 176.127 26.2492H182.53Z" fill="#1E84B5"/>
<g clip-path="url(#clip0_107_530)">
<path fill-rule="evenodd" clip-rule="evenodd" d="M0.867763 9.74394C0.512717 10.9669 1.9329 12.604 4.65492 14.1031C5.72006 11.1444 7.83061 8.7577 11.0063 8.34348C15.3457 7.77146 17.4563 9.44806 21.0659 8.58017C24.3205 7.79118 26.7664 4.28017 32.2301 2.72192C32.8613 2.54439 33.4925 2.46549 34.1237 2.46549C35.2875 1.42008 35.7214 -0.0395508 35.7214 -0.0395508L35.5439 1.26228C35.1691 3.92513 33.098 5.99623 30.4352 6.371L29.1334 6.56825L30.4352 6.74577C33.098 7.12054 35.1691 9.21137 35.5439 11.8545L35.7214 13.1563L35.9187 11.8545C36.2934 9.21137 38.3646 7.12054 41.0274 6.74577L42.3292 6.56825C42.3292 6.56825 41.8361 6.84439 41.343 7.45586C42.3884 9.94118 42.3687 13.1958 40.4554 16.7462C38.3251 20.7504 36.7668 23.8471 35.6425 26.51C31.4806 26.4311 25.9182 25.4054 19.4485 23.5907C4.59574 19.4682 -2.2093 11.6572 0.867763 9.74394ZM26.4508 13.1563L26.865 13.2155C27.6934 13.3338 28.3444 13.9848 28.4627 14.8132L28.5219 15.2077L28.5811 14.8132C28.6994 13.9848 29.3503 13.3338 30.1788 13.2155L30.5733 13.1563L30.1788 13.0971C29.3503 12.9788 28.6994 12.3279 28.5811 11.4994L28.5219 11.0852L28.4627 11.4994C28.3444 12.3279 27.6934 12.9788 26.865 13.0971L26.4508 13.1563Z" fill="#0E384C"/>
<path d="M43.4736 23.295C47.1621 30.7904 37.0827 33.0785 19.1135 27.595C13.7878 25.9776 8.1465 23.2753 3.96484 20.4744C4.08319 21.4212 4.30016 22.3285 4.61576 23.1569C7.31805 30.2776 8.02815 33.6308 7.89007 38.779C7.752 44.3611 12.9199 43.0395 14.991 36.8854C16.0167 33.828 17.8511 33.0982 18.9951 32.9404C21.5199 33.0785 22.3681 34.6565 23.7685 38.562C25.8988 44.4794 32.1713 44.4202 32.763 37.6744C32.8814 36.5698 32.9997 35.5046 33.1772 34.479C35.8203 34.6959 38.4043 34.4987 40.7713 33.7689C46.5309 31.9542 46.7873 26.1354 43.4736 23.295Z" fill="#1E84B5"/>
<path d="M40.7713 6.33154C39.9823 5.02971 38.858 4.00402 37.5957 3.33338C36.8264 2.76136 35.9979 1.55815 35.9585 1.47925C36.3924 3.94484 38.3057 5.87787 40.7713 6.33154Z" fill="#0C2834"/>
</g>
<defs>
<clipPath id="clip0_107_530">
<rect width="45.7615" height="43" fill="white"/>
</clipPath>
</defs>
</svg>

<svg xmlns="http://www.w3.org/2000/svg" width="189" height="49" fill="none" viewBox="0 0 189 49"><path fill="#1e84b5" d="M65.485 15.21q3.321 0 5.804 1.316t3.83 3.71q1.376 2.362 1.376 5.475 0 3.081-1.377 5.475-1.345 2.393-3.859 3.71-2.483 1.316-5.774 1.316h-7.868V15.209zm-.33 16.574q2.903 0 4.519-1.586 1.614-1.586 1.615-4.487 0-2.902-1.615-4.518-1.616-1.616-4.518-1.616h-2.423v12.207zm29.936-4.188q0 .718-.09 1.495H83.422q.12 1.556.988 2.394.897.807 2.184.808 1.914 0 2.663-1.616H94.7a7.4 7.4 0 0 1-1.525 2.962q-1.077 1.316-2.723 2.064t-3.68.748q-2.453 0-4.368-1.047a7.45 7.45 0 0 1-2.991-2.992q-1.078-1.944-1.078-4.547t1.048-4.548a7.45 7.45 0 0 1 2.991-2.991q1.915-1.048 4.398-1.048 2.424 0 4.309 1.018a7.2 7.2 0 0 1 2.931 2.902q1.078 1.884 1.078 4.398m-5.236-1.347q0-1.315-.898-2.094-.897-.778-2.243-.778-1.287 0-2.184.748-.868.749-1.078 2.124zm18.106-6.91q2.932 0 4.668 1.914 1.764 1.885 1.765 5.206v9.753h-5.086v-9.065q0-1.676-.868-2.603-.867-.927-2.334-.928-1.466 0-2.333.928-.867.927-.868 2.603v9.065h-5.116V19.518h5.116v2.214q.778-1.107 2.095-1.736 1.315-.657 2.961-.658m19.292 12.535v4.338h-2.603q-2.782 0-4.338-1.347-1.555-1.376-1.555-4.457v-6.642h-2.035v-4.248h2.035v-4.07h5.115v4.07h3.351v4.248h-3.351v6.702q0 .747.36 1.077.359.329 1.196.329zm1.833-4.04q0-2.572.957-4.517.987-1.944 2.663-2.991t3.739-1.048q1.765 0 3.082.718 1.346.719 2.064 1.885v-2.363h5.116v16.694h-5.116v-2.364q-.747 1.167-2.094 1.885-1.317.718-3.081.718-2.035 0-3.71-1.047-1.676-1.077-2.663-3.022-.957-1.974-.957-4.547m12.505.03q0-1.914-1.077-3.02-1.047-1.108-2.573-1.108t-2.603 1.107q-1.047 1.077-1.047 2.992 0 1.914 1.047 3.051 1.077 1.107 2.603 1.107t2.573-1.107q1.077-1.107 1.077-3.021m11.39-10.082q-1.345 0-2.214-.777a2.64 2.64 0 0 1-.837-1.975q0-1.197.837-1.974.869-.809 2.214-.808 1.317 0 2.154.808.868.777.868 1.974 0 1.167-.868 1.975-.837.777-2.154.777m2.543 1.736v16.694h-5.116V19.518zm8.824 2.782a6.6 6.6 0 0 1 2.244-2.154q1.345-.808 2.991-.808v5.415h-1.406q-1.915 0-2.872.838-.957.807-.957 2.872v7.749h-5.116V19.518h5.116zm23.417 5.296q0 .718-.089 1.495h-11.579q.12 1.556.988 2.394.897.807 2.184.808 1.914 0 2.662-1.616h5.445a7.4 7.4 0 0 1-1.525 2.962q-1.077 1.316-2.723 2.064t-3.68.748q-2.452 0-4.368-1.047a7.45 7.45 0 0 1-2.992-2.992q-1.077-1.944-1.077-4.547t1.048-4.548a7.45 7.45 0 0 1 2.991-2.991q1.916-1.048 4.398-1.048 2.424 0 4.308 1.018a7.2 7.2 0 0 1 2.932 2.902q1.077 1.884 1.077 4.398m-5.235-1.347q0-1.315-.898-2.094-.897-.778-2.244-.778-1.285 0-2.184.748-.867.749-1.077 2.124z"/><g clip-path="url(#a)"><path fill="#0e384c" fill-rule="evenodd" d="M.868 9.744c-.355 1.223 1.065 2.86 3.787 4.36 1.065-2.96 3.176-5.346 6.351-5.76 4.34-.573 6.45 1.104 10.06.236 3.255-.789 5.7-4.3 11.164-5.858a7 7 0 0 1 1.894-.257C35.287 1.42 35.72-.04 35.72-.04l-.177 1.302a5.984 5.984 0 0 1-5.109 5.109l-1.302.197 1.302.178a6.005 6.005 0 0 1 5.109 5.108l.177 1.302.198-1.302a6.004 6.004 0 0 1 5.108-5.108l1.302-.178s-.493.276-.986.888c1.045 2.485 1.026 5.74-.888 9.29-2.13 4.004-3.688 7.101-4.812 9.764-4.162-.079-9.725-1.105-16.195-2.92C4.596 19.469-2.209 11.658.869 9.745m25.583 3.412.414.06c.828.118 1.48.769 1.598 1.597l.059.395.06-.395a1.88 1.88 0 0 1 1.597-1.598l.394-.059-.394-.059a1.88 1.88 0 0 1-1.6-1.598l-.06-.414-.058.414a1.88 1.88 0 0 1-1.598 1.598z" clip-rule="evenodd"/><path fill="#1e84b5" d="M43.474 23.295c3.688 7.495-6.391 9.783-24.36 4.3-5.326-1.617-10.968-4.32-15.15-7.12.12.946.336 1.853.652 2.682 2.702 7.12 3.412 10.474 3.274 15.622-.138 5.582 5.03 4.26 7.101-1.894 1.026-3.057 2.86-3.787 4.004-3.945 2.525.139 3.373 1.717 4.773 5.622 2.13 5.917 8.403 5.858 8.995-.888.118-1.104.237-2.17.414-3.195 2.643.217 5.227.02 7.594-.71 5.76-1.815 6.016-7.634 2.703-10.474"/><path fill="#0c2834" d="M40.771 6.332a8.26 8.26 0 0 0-3.175-2.999c-.77-.572-1.598-1.775-1.637-1.854a5.98 5.98 0 0 0 4.812 4.853"/></g><defs><clipPath id="a"><path fill="#fff" d="M0 0h45.761v43H0z"/></clipPath></defs></svg>
